Sites/UniverseChariot/app/img/dest/causes/image(6).svg

<svg width="106" height="106" viewBox="0 0 106 106" fill="none" xmlns="http://www.w3.org/2000/svg">
<circle cx="53" cy="53" r="53" fill="url(#paint0_linear)"/>
<path d="M31.026 36.5457C25.1437 41.7464 23.8943 54.6442 25.8724 59.3768M31.026 36.5457L26.4971 37.3778M31.026 36.5457V40.7063M71.786 34.9854C78.6419 42.8781 79.23 48.9234 78.3451 59.3768M78.3451 59.3768L76.1067 56.5685M78.3451 59.3768L81 56.5685M76.8355 63.4334C71.6299 74.979 62.9496 78.5138 51.1718 79.7637M51.1718 79.7637L54.2431 76.5392M51.1718 79.7637L54.2431 82M43.988 78.4635C36.4919 76.9553 28.6314 68.8422 26.8615 63.4334M26.8615 63.4334L25.8724 68.1141M26.8615 63.4334L30.7657 65.2537M34.5658 32.7491C40.7085 26.0922 53.6184 22.0356 68.8709 31.917M68.8709 31.917L67.9339 28.0165M68.8709 31.917L65.3311 32.7491" stroke="white" stroke-width="2" stroke-linecap="round"/>
<defs>
<linearGradient id="paint0_linear" x1="53" y1="0" x2="53" y2="106" gradientUnits="userSpaceOnUse">
<stop stop-color="#FDAE39"/>
<stop offset="1" stop-color="#C04A1E"/>
</linearGradient>
</defs>
</svg>

<svg width="106" height="106" fill="none" xmlns="http://www.w3.org/2000/svg"><circle cx="53" cy="53" r="53" fill="url(#paint0_linear)"/><path d="M31.026 36.546c-5.882 5.2-7.132 18.098-5.154 22.83m5.154-22.83l-4.529.832m4.529-.832v4.16m40.76-5.72c6.856 7.892 7.444 13.937 6.56 24.39m0 0l-2.24-2.807m2.24 2.808L81 56.568m-4.165 6.865C71.63 74.98 62.95 78.513 51.172 79.763m0 0l3.071-3.224m-3.071 3.225L54.243 82m-10.255-3.537c-7.496-1.508-15.357-9.62-17.127-15.03m0 0l-.989 4.681m.99-4.68l3.904 1.82m3.8-32.505c6.142-6.657 19.052-10.713 34.305-.832m0 0l-.937-3.9m.937 3.9l-3.54.832" stroke="#fff" stroke-width="2" stroke-linecap="round"/><defs><linearGradient id="paint0_linear" x1="53" y1="0" x2="53" y2="106" gradientUnits="userSpaceOnUse"><stop stop-color="#FDAE39"/><stop offset="1" stop-color="#C04A1E"/></linearGradient></defs></svg>
